launcher/android/assets/skins/day/svg/mapMystery1.svg

<svg enable-background="new 0 0 258.00 258.00" height="258" viewBox="0 0 258 258" width="258" xmlns="http://www.w3.org/2000/svg" xmlns:xlink="http://www.w3.org/1999/xlink"><linearGradient id="a" gradientTransform="matrix(-.966395140898 .257061143792 -.257061143792 -.966395140898 2.065211685697 .614896855393)" gradientUnits="objectBoundingBox" x1=".992414" x2="1.98393" y1=".442438" y2=".442438"><stop offset=".00925926" stop-color="#fff"/><stop offset="1" stop-color="#fcfcff" stop-opacity="0"/></linearGradient><linearGradient id="b"><stop offset=".00925926" stop-color="#fff"/><stop offset="1" stop-color="#fff" stop-opacity="0"/></linearGradient><linearGradient id="c" gradientTransform="matrix(-.968599743862 .24862529274 -.24862529274 -.968599743862 2.063126231446 .620166437066)" gradientUnits="objectBoundingBox" x1=".992401" x2="1.9844" xlink:href="#b" y1=".440365" y2=".440365"/><linearGradient id="d" gradientTransform="matrix(-.940434384383 .339975247143 -.339975247143 -.940434384383 2.119009965461 .542379285576)" gradientUnits="objectBoundingBox" x1="1.01199" x2="2.01995" xlink:href="#b" y1=".456821" y2=".456821"/><g stroke-linejoin="round"><path d="m122.277 179.957c10.493 0 19 8.618 19 19.25 0 10.631-8.507 19.25-19 19.25s-19-8.619-19-19.25c0-10.632 8.507-19.25 19-19.25z" fill="#0025c1" stroke="#000" stroke-width="5"/><path d="m95.777 117.457-17-7.5-9.0001-11.0001-4-10-.5-13 4-10.5 6-9.5 6.5-6.5 11-7.5 8.5001-3.5 11-2 11.5-.5 12-1 11.5 1.5 7.5 3.5 10 5 9 6.5 6.5 7 7 12 1 11-1.5 14-4.5 7.5001-7.5 8-9 10-12 8.5-12 10-6.5 11.5-3.5 8 .272 3.533-.585 3.154-2.875 1.5-10.812-.187-4-3v-9l6.5-10.5 8.5-12.5 11.5-13 4.5-7 4-11.5v-10.5001l-2.5-12-6-6-10-4.5-9-1-7.5.5-9 3-6.0001 5.5v6.5l2.0001 6.5 7.5 5 5 3 1.5 5.0001-1 5.5-3 4-3.5 3.5-6.5 1.5z" fill="#0025c1" stroke="#000" stroke-width="5"/><g stroke-width=".2"><path d="m141.11 41.4567 11.334 7.6667 9.333 7.3335 8.333 10.3333 3.667 9.3333 1.333 12.3334-2 12.0001-3.333 5.667 4.631 1.546 9.369-12.5465 1.667-9.6666-.334-13-7.202-11.7871-4.464-5.2129-1.667-2.3334-4.667-3-6.666-5-6.667-3-6-1.3333z" fill="url(#a)"/><path d="m97.9436 87.5402-2.9583-2.0417-2.375 5.7082 4 4.3335 3.9997 4.6668 1 5.333-.333 6-.542 2.042 4.417-.75 3.667-2.084 2.833-2.666-.083-3.5.333-3.417-1-2.8331-4.667-3-3.416-2.1667-3.0004-2.1667" fill="url(#c)"/><path d="m123.777 182.79 3.667 4.333 2.333 4.667-.333 6.667-1.334 6.667-2.333 5.666.667 3 3.359-.099 3.834-2.25 3.083-4.167 1.667-4.917s.809-3.712.39-5.233c-.365-1.326-1-5.334-1-5.334l-1.333-4-3.334-3-3-2z" fill="url(#d)"/></g></g></svg>

﻿<?xml version="1.0" encoding="utf-8"?>
<!DOCTYPE svg PUBLIC "-//W3C//DTD SVG 1.1//EN" "http://www.w3.org/Graphics/SVG/1.1/DTD/svg11.dtd">
<svg xmlns="http://www.w3.org/2000/svg" xmlns:xlink="http://www.w3.org/1999/xlink" version="1.1" baseProfile="full" width="258" height="258" viewBox="0 0 258.00 258.00" enable-background="new 0 0 258.00 258.00" xml:space="preserve">
	<g>
		<path fill="#0025C1" fill-opacity="1" stroke-width="5" stroke-linejoin="round" stroke="#000000" stroke-opacity="1" d="M 122.277,179.957C 132.77,179.957 141.277,188.575 141.277,199.207C 141.277,209.838 132.77,218.457 122.277,218.457C 111.784,218.457 103.277,209.838 103.277,199.207C 103.277,188.575 111.784,179.957 122.277,179.957 Z "/>
		<path fill="#0025C1" fill-opacity="1" stroke-width="5" stroke-linejoin="round" stroke="#000000" stroke-opacity="1" d="M 95.777,117.457L 78.777,109.957L 69.7769,98.9569L 65.7769,88.9569L 65.2769,75.9569L 69.2769,65.4569L 75.2769,55.9569L 81.7769,49.4569L 92.7769,41.9569L 101.277,38.4569L 112.277,36.4569L 123.777,35.9569L 135.777,34.9569L 147.277,36.4569L 154.777,39.9569L 164.777,44.9569L 173.777,51.4569L 180.277,58.4569L 187.277,70.4569L 188.277,81.4569L 186.777,95.4569L 182.277,102.957L 174.777,110.957L 165.777,120.957L 153.777,129.457L 141.777,139.457L 135.277,150.957L 131.777,158.957L 132.049,162.49L 131.464,165.644L 128.589,167.144L 117.777,166.957L 113.777,163.957L 113.777,154.957L 120.277,144.457L 128.777,131.957L 140.277,118.957L 144.777,111.957L 148.777,100.457L 148.777,89.9569L 146.277,77.9569L 140.277,71.9569L 130.277,67.4569L 121.277,66.4569L 113.777,66.9569L 104.777,69.9569L 98.7769,75.4569L 98.7769,81.9569L 100.777,88.4569L 108.277,93.4569L 113.277,96.4569L 114.777,101.457L 113.777,106.957L 110.777,110.957L 107.277,114.457L 100.777,115.957L 95.777,117.457 Z "/>
		<linearGradient id="SVGID_Fill1_" gradientUnits="objectBoundingBox" x1="0.992414" y1="0.442438" x2="1.98393" y2="0.442438" gradientTransform="rotate(165.104248 0.992414 0.442438)">
			<stop offset="0.00925926" stop-color="#FFFFFF" stop-opacity="1"/>
			<stop offset="1" stop-color="#FCFCFF" stop-opacity="0"/>
		</linearGradient>
		<path fill="url(#SVGID_Fill1_)" stroke-width="0.2" stroke-linejoin="round" d="M 141.11,41.4567L 152.444,49.1234L 161.777,56.4569L 170.11,66.7902L 173.777,76.1235L 175.11,88.4569L 173.11,100.457L 169.777,106.124L 174.408,107.67L 183.777,95.1235L 185.444,85.4569L 185.11,72.4569L 177.908,60.6698L 173.444,55.4569L 171.777,53.1235L 167.11,50.1235L 160.444,45.1235L 153.777,42.1235L 147.777,40.7902L 141.11,41.4567 Z "/>
		<linearGradient id="SVGID_Fill2_" gradientUnits="objectBoundingBox" x1="0.992401" y1="0.440365" x2="1.9844" y2="0.440365" gradientTransform="rotate(165.603821 0.992401 0.440365)">
			<stop offset="0.00925926" stop-color="#FFFFFF" stop-opacity="1"/>
			<stop offset="1" stop-color="#FFFFFF" stop-opacity="0"/>
		</linearGradient>
		<path fill="url(#SVGID_Fill2_)" stroke-width="0.2" stroke-linejoin="round" d="M 97.9436,87.5402L 94.9853,85.4985L 92.6103,91.2067L 96.6103,95.5402L 100.61,100.207L 101.61,105.54L 101.277,111.54L 100.735,113.582L 105.152,112.832L 108.819,110.748L 111.652,108.082L 111.569,104.582L 111.902,101.165L 110.902,98.3319L 106.235,95.3319L 102.819,93.1652L 99.8186,90.9985"/>
		<linearGradient id="SVGID_Fill3_" gradientUnits="objectBoundingBox" x1="1.01199" y1="0.456821" x2="2.01995" y2="0.456821" gradientTransform="rotate(160.124634 1.011991 0.456821)">
			<stop offset="0.00925926" stop-color="#FFFFFF" stop-opacity="1"/>
			<stop offset="1" stop-color="#FFFFFF" stop-opacity="0"/>
		</linearGradient>
		<path fill="url(#SVGID_Fill3_)" stroke-width="0.2" stroke-linejoin="round" d="M 123.777,182.79L 127.444,187.123L 129.777,191.79L 129.444,198.457L 128.11,205.124L 125.777,210.79L 126.444,213.79L 129.803,213.691L 133.637,211.441L 136.72,207.274L 138.387,202.357C 138.387,202.357 139.196,198.645 138.777,197.124C 138.412,195.798 137.777,191.79 137.777,191.79L 136.444,187.79L 133.11,184.79L 130.11,182.79L 123.777,182.79 Z "/>
	</g>
</svg>
